packages/foundations/assets/icons/functional/images/human/wc_sign_16.svg

<svg width="16" height="16" viewBox="0 0 16 16" fill="none" xmlns="http://www.w3.org/2000/svg">
<g clip-path="url(#clip0_185_1300)">
<path fill-rule="evenodd" clip-rule="evenodd" d="M1.59998 5.21253C1.59998 4.73749 2.02494 4.43749 2.42494 4.43749C2.74998 4.43749 3.08734 4.63461 3.17502 5.03749L3.86862 8.22733L4.64998 5.01253C4.74166 4.63541 5.09998 4.43749 5.42494 4.43749C5.74998 4.43749 6.10862 4.62797 6.19998 5.01253L6.9643 8.23917L7.64998 5.03749C7.74166 4.61069 8.07502 4.43749 8.39998 4.43749C8.82494 4.43749 9.22494 4.73749 9.22494 5.21253C9.22494 5.28757 9.2199 5.36101 9.19998 5.43749L7.74998 11.0125C7.64622 11.4116 7.29998 11.5876 6.97502 11.5876C6.64998 11.5876 6.3123 11.4093 6.19998 11.0125L5.39998 8.18757L4.59998 11.0125C4.48582 11.4157 4.14998 11.5876 3.82494 11.5876C3.49998 11.5876 3.15254 11.3869 3.04998 10.9876L1.62494 5.43749C1.60534 5.36093 1.59998 5.28757 1.59998 5.21253ZM9.57502 8.03749C9.57502 4.73749 11.5249 4.38757 12.375 4.38757C12.875 4.38757 13.4 4.48757 13.875 4.71253C14.2249 4.86253 14.375 5.13749 14.375 5.41253C14.375 5.83749 14.05 6.26253 13.6 6.26253C13.5 6.26253 13.375 6.23749 13.275 6.18757C13 6.06253 12.7249 5.98757 12.45 5.98757C12.1 5.98757 11.175 5.98757 11.175 8.03749C11.175 10.0125 12 10.0125 12.45 10.0125C12.75 9.98757 13.05 9.91253 13.3249 9.81253C13.4249 9.78757 13.5249 9.76253 13.6249 9.76253C14.075 9.76253 14.4 10.1876 14.4 10.6125C14.4 10.9125 14.25 11.1876 13.875 11.3375C13.4 11.4876 12.9 11.5876 12.4 11.6125C11.35 11.6125 9.57502 11.1375 9.57502 8.03749Z" fill="#1A1C1F"/>
</g>
<defs>
<clipPath id="clip0_185_1300">
<rect width="16" height="16" fill="white"/>
</clipPath>
</defs>
</svg>

<svg xmlns="http://www.w3.org/2000/svg" width="16" height="16" fill="none"><g clip-path="url(#a)"><path fill="#1A1C1F" fill-rule="evenodd" d="M1.6 5.213c0-.476.425-.776.825-.776a.75.75 0 0 1 .75.6l.694 3.19.781-3.214c.092-.378.45-.576.775-.576s.684.191.775.576l.764 3.226.686-3.202c.092-.426.425-.6.75-.6.425 0 .825.3.825.776a1 1 0 0 1-.025.224l-1.45 5.575c-.104.4-.45.576-.775.576s-.663-.179-.775-.575l-.8-2.825-.8 2.824c-.114.404-.45.576-.775.576a.79.79 0 0 1-.775-.6l-1.425-5.55a1 1 0 0 1-.025-.225m7.975 2.824c0-3.3 1.95-3.65 2.8-3.65.5 0 1.025.1 1.5.326.35.15.5.424.5.7 0 .424-.325.85-.775.85a.8.8 0 0 1-.325-.075c-.275-.125-.55-.2-.825-.2-.35 0-1.275 0-1.275 2.05 0 1.974.825 1.974 1.275 1.974.3-.024.6-.1.875-.2.1-.024.2-.05.3-.05.45 0 .775.426.775.85 0 .3-.15.576-.525.726-.475.15-.975.25-1.475.275-1.05 0-2.825-.476-2.825-3.576" clip-rule="evenodd"/></g><defs><clipPath id="a"><path fill="#fff" d="M0 0h16v16H0z"/></clipPath></defs></svg>
